fs/text_strikethrough_24_filled.svg

<svg viewBox="0 0 24 24" fill="none" xmlns="http://www.w3.org/2000/svg" height="1em" width="1em">
  <path d="M13.8479 11.4999H19.5007C20.0529 11.4999 20.5007 11.9477 20.5007 12.4999C20.5007 13.0522 20.0529 13.4999 19.5007 13.4999H17.1138C17.7748 14.2749 18.1124 15.1749 18.1124 16.1845C18.1124 19.1135 14.8316 21.0993 11.0788 20.6632C8.75106 20.3927 7.11436 19.4443 6.25235 17.8307C5.99211 17.3436 6.0447 16.8151 6.5 16.4998C6.9553 16.1845 7.75616 16.4012 8.0164 16.8883C8.54932 17.8859 9.6199 18.4802 11.3097 18.6766C13.8964 18.9772 16.1124 17.7667 16.1124 16.1845C16.1124 15.0862 15.5649 14.245 14.005 13.4999H5C4.44772 13.4999 4 13.0522 4 12.4999C4 11.9477 4.44772 11.4999 5 11.4999H13.812C13.8307 11.4997 13.8318 11.4997 13.8479 11.4999ZM6.98666 9.69482C6.88193 9.53666 6.78286 9.36983 6.68906 9.18547C6.38864 8.59492 6.22083 7.97058 6.25419 7.34979C6.41352 4.38519 9.18805 2.63683 12.8562 3.06312C15.1166 3.32582 16.8455 4.14703 18.0031 5.54979C18.3546 5.97576 18.276 6.59827 17.85 6.94979C17.424 7.30131 16.8015 7.27576 16.45 6.84979C15.6372 5.86479 14.3821 5.25391 12.6253 5.04975C10.0647 4.75216 8.25383 5.76788 8.25383 7.37319C8.25383 8.08696 8.49272 8.59298 9.01563 9.18294C9.24071 9.43689 9.66268 9.70847 10.2815 9.99769H7.1922C7.08082 9.83451 7.0123 9.73355 6.98666 9.69482Z" fill="#212121"/>
</svg>

<svg viewBox="0 0 24 24" fill="none" xmlns="http://www.w3.org/2000/svg" height="1em" width="1em">
  <path d="M13.848 11.5H19.5a1 1 0 0 1 0 2h-2.387a4.03 4.03 0 0 1 .998 2.684c0 2.93-3.28 4.915-7.033 4.48-2.328-.271-3.965-1.22-4.827-2.833-.26-.487-.207-1.016.248-1.331.455-.316 1.256-.099 1.516.388.533.998 1.604 1.592 3.294 1.789 2.586.3 4.802-.91 4.802-2.492 0-1.099-.547-1.94-2.107-2.685H5a1 1 0 1 1 0-2h8.848ZM6.987 9.695a5.122 5.122 0 0 1-.298-.51c-.3-.59-.468-1.214-.435-1.835.16-2.965 2.934-4.713 6.602-4.287 2.26.263 3.99 1.084 5.147 2.487a.993.993 0 0 1-.153 1.4c-.426.351-1.049.326-1.4-.1-.813-.985-2.068-1.596-3.825-1.8-2.56-.298-4.371.718-4.371 2.323 0 .714.239 1.22.762 1.81.225.254.647.525 1.265.815H7.192a38.03 38.03 0 0 1-.205-.303Z" fill="#212121"/>
</svg>
